resources/hidden.svg

<svg width="24" height="24" viewBox="0 0 24 24" fill="none" xmlns="http://www.w3.org/2000/svg">
    <path fill-rule="evenodd" clip-rule="evenodd" d="M4.868 7.50373C4.59382 7.02431 3.98291 6.85792 3.50349 7.1321C3.02406 7.40628 2.85768 8.01719 3.13186 8.49661C3.81746 9.69545 4.86621 10.7086 6.15221 11.4685L4.99994 13.4643C4.7238 13.9426 4.88767 14.5542 5.36596 14.8303C5.84426 15.1064 6.45585 14.9426 6.73199 14.4643L7.97177 12.3169C8.91729 12.6544 9.93812 12.8748 11.0007 12.9602C11.0002 12.9734 10.9999 12.9868 10.9999 13.0002V16.0002C10.9999 16.5525 11.4477 17.0002 11.9999 17.0002C12.5522 17.0002 12.9999 16.5525 12.9999 16.0002V13.0002C12.9999 12.9868 12.9997 12.9734 12.9992 12.9602C13.9786 12.8815 14.9225 12.688 15.8047 12.394L16.9999 14.4643C17.2761 14.9426 17.8877 15.1064 18.366 14.8303C18.8443 14.5542 19.0081 13.9426 18.732 13.4643L17.6465 11.5842C19.0243 10.8127 20.147 9.75736 20.868 8.49661C21.1422 8.01719 20.9758 7.40628 20.4964 7.1321C20.0169 6.85792 19.406 7.02431 19.1319 7.50373C18.003 9.47771 15.3069 11.0002 11.9999 11.0002C8.69293 11.0002 5.99689 9.47771 4.868 7.50373Z" fill="#333333"/>
</svg>

<svg width="24" height="24" fill="none" xmlns="http://www.w3.org/2000/svg"><path fill-rule="evenodd" clip-rule="evenodd" d="M4.868 7.504a1 1 0 0 0-1.736.992c.685 1.2 1.734 2.212 3.02 2.972L5 13.464a1 1 0 1 0 1.732 1l1.24-2.147c.945.337 1.966.558 3.029.643L11 13v3a1 1 0 0 0 2 0v-3.04a11.922 11.922 0 0 0 2.805-.566L17 14.464a1 1 0 0 0 1.732-1l-1.085-1.88c1.377-.771 2.5-1.827 3.221-3.088a1 1 0 1 0-1.736-.992C18.003 9.478 15.307 11 12 11c-3.307 0-6.003-1.522-7.132-3.496z" fill="#C4C4C4"/></svg>
